X:11
T:Marbhna Luimni
T:Limerick's Lamentation
R:slow air
Z:id:hn-slowair-11
M:3/4
L:1/8
Q:1/4=50
K:G
GA | B2 dB AG | A G3 GA | B2 dB AG | A4 GA |
B<G c<A B<G | E>D E2 GA | BG G3 A | G4 :|
|: G>A | B2 d2 d>e | d2 cB AG | G2 g2 g>a | g4 :|
de | =fe fg af | ed e=f ge | de gB AG | A4 GA |
B<G c<A B<G | E>D E2 GA | BG G3 A | G4 ||

